assets/Train/Flat/train_flat.svg

<svg width="32" height="32" viewBox="0 0 32 32" fill="none" xmlns="http://www.w3.org/2000/svg">
<path d="M22.5904 23.1292C21.8233 23.2499 21.4238 23.1807 21 23.5C20.5999 23.8015 20.5 24 20.1369 24.995H20.8827C21.4213 24.995 21.6143 25.2361 21.8233 25.5416C21.9905 25.786 22.0967 25.9513 22.1288 26.0034H9.8549C9.90227 25.9379 10.0356 25.7443 10.19 25.4934C10.3829 25.1799 10.8733 24.995 11.1628 24.995H11.8631C11.8631 24.2584 11.4257 23.8291 11 23.5C10.6098 23.1983 10.19 23.1292 9.40957 23.1292L6.38697 27.4471C6.1351 27.807 6 28.2355 6 28.6748C6 29.4067 6.59331 30 7.3252 30H24.6748C25.4067 30 26 29.4067 26 28.6748C26 28.2355 25.8649 27.807 25.613 27.4471L22.5904 23.1292ZM24 28H8L8.4207 27.4157C8.60862 27.1547 8.91061 27 9.23223 27H22.7678C23.0894 27 23.3914 27.1547 23.5793 27.4157L24 28Z" fill="#212121"/>
<path d="M25 16V17C25 21.9706 20.9706 26 16 26C11.0294 26 7 21.9706 7 17V16H25Z" fill="#3F5FFF"/>
<path d="M24.8276 8.33997C24.0633 4.71833 20.8491 2 17 2H15C11.1446 2 7.92612 4.72731 7.1687 8.3579C6.83906 9.938 7.41531 11.0383 8.00001 12.5C7.53145 13.6714 6.91395 14.7246 7.05494 16C7.55238 20.4999 11.3675 24 16 24C20.6326 24 24.4476 20.4999 24.9451 16C24.9451 14.9162 23.7184 14.7184 23 14C23.4673 12.1306 24.9451 10.3692 24.8276 8.33997Z" fill="#9B9B9B"/>
<path d="M7 14.0001V16.0001H8.5C9.32843 16.0001 10 15.3285 10 14.5001V14.0001L7.17172 8.34351C7.05918 8.87798 7 9.43211 7 10.0001V14.0001ZM25 14.0001V16.0001H23.5C22.6716 16.0001 22 15.3285 22 14.5001V14.0001L24.8283 8.34351C24.9408 8.87798 25 9.43211 25 10.0001V14.0001Z" fill="#5092FF"/>
<path d="M11.5 20C12.3284 20 13 19.3284 13 18.5C13 17.6716 12.3284 17 11.5 17C10.6716 17 10 17.6716 10 18.5C10 19.3284 10.6716 20 11.5 20ZM20.5 20C21.3284 20 22 19.3284 22 18.5C22 17.6716 21.3284 17 20.5 17C19.6716 17 19 17.6716 19 18.5C19 19.3284 19.6716 20 20.5 20Z" fill="#FFB02E"/>
<path d="M14 18.5C14 18.2239 14.2239 18 14.5 18H17.5C17.7761 18 18 18.2239 18 18.5V18.5C18 18.7761 17.7761 19 17.5 19H14.5C14.2239 19 14 18.7761 14 18.5V18.5Z" fill="#212121"/>
<path d="M10.2426 8.97014C9.61141 6.44555 11.5208 4 14.1231 4H17.8769C20.4792 4 22.3886 6.44555 21.7575 8.97014L20.9702 12.1194C20.4 14.4001 18.3508 16 16 16V16C13.6492 16 11.6 14.4001 11.0299 12.1194L10.2426 8.97014Z" fill="#26C9FC"/>
</svg>

<svg xmlns="http://www.w3.org/2000/svg" width="32" height="32" fill="none"><path fill="#212121" d="M22.59 23.13c-.767.12-1.166.05-1.59.37-.4.302-.5.5-.863 1.495h.746c.538 0 .731.241.94.547.168.244.274.41.306.461H9.855c.047-.065.18-.259.335-.51.193-.313.683-.498.973-.498h.7c0-.737-.437-1.166-.863-1.495-.39-.302-.81-.37-1.59-.37l-3.023 4.317c-.252.36-.387.788-.387 1.228C6 29.407 6.593 30 7.325 30h17.35c.732 0 1.325-.593 1.325-1.325 0-.44-.135-.868-.387-1.228L22.59 23.13ZM24 28H8l.42-.584A1 1 0 0 1 9.233 27h13.536a1 1 0 0 1 .811.416L24 28Z"/><path fill="#3F5FFF" d="M25 16v1a9 9 0 1 1-18 0v-1h18Z"/><path fill="#9B9B9B" d="M24.828 8.34A8.003 8.003 0 0 0 17 2h-2a8.003 8.003 0 0 0-7.831 6.358c-.33 1.58.246 2.68.831 4.142-.469 1.171-1.086 2.225-.945 3.5a9.001 9.001 0 0 0 17.89 0c0-1.084-1.227-1.282-1.945-2 .467-1.87 1.945-3.63 1.828-5.66Z"/><path fill="#5092FF" d="M7 14v2h1.5a1.5 1.5 0 0 0 1.5-1.5V14L7.172 8.344A8.033 8.033 0 0 0 7 10v4Zm18 0v2h-1.5a1.5 1.5 0 0 1-1.5-1.5V14l2.828-5.656C24.941 8.878 25 9.432 25 10v4Z"/><path fill="#FFB02E" d="M11.5 20a1.5 1.5 0 1 0 0-3 1.5 1.5 0 0 0 0 3Zm9 0a1.5 1.5 0 1 0 0-3 1.5 1.5 0 0 0 0 3Z"/><path fill="#212121" d="M14 18.5a.5.5 0 0 1 .5-.5h3a.5.5 0 0 1 0 1h-3a.5.5 0 0 1-.5-.5Z"/><path fill="#26C9FC" d="M10.243 8.97A4 4 0 0 1 14.123 4h3.754a4 4 0 0 1 3.88 4.97l-.787 3.15a5.123 5.123 0 0 1-9.94 0l-.787-3.15Z"/></svg>
